icons/list.svg

<svg fill="none" stroke="currentColor" stroke-linecap="round" stroke-linejoin="round" stroke-width="1.5" viewBox="0 0 24 24"><path d="m12.456 7.036.408.161.332.437.224.649.083.796v3.375l-.083.795-.224.649-.332.438-.408.161H2.869l-.408-.161-.332-.438-.224-.649-.083-.795V9.079l.083-.796.224-.649.332-.437.408-.161zm0 1.703H2.869c-.096 0-.174.152-.174.34v3.375c0 .188.078.34.174.34h9.587c.096 0 .174-.152.174-.34V9.079c0-.188-.078-.34-.174-.34m0 8.725.408.161.332.438.224.649.083.796v3.374l-.083.796-.224.649-.332.437-.408.161H2.869l-.408-.161-.332-.437-.224-.649-.083-.796v-3.374l.083-.796.224-.649.332-.438.408-.161zm0 1.703H2.869c-.096 0-.174.153-.174.341v3.374c0 .188.078.341.174.341h9.587c.096 0 .174-.153.174-.341v-3.374c0-.188-.078-.341-.174-.341" transform="matrix(1.71939 0 0 .88084 -1.175 -2.076)"/></svg>

<?xml version="1.0" encoding="UTF-8" standalone="no"?>
<!DOCTYPE svg PUBLIC "-//W3C//DTD SVG 1.1//EN" "http://www.w3.org/Graphics/SVG/1.1/DTD/svg11.dtd">
<svg width="100%" height="100%" viewBox="0 0 24 24" version="1.1" xmlns="http://www.w3.org/2000/svg" xmlns:xlink="http://www.w3.org/1999/xlink" xml:space="preserve" xmlns:serif="http://www.serif.com/" style="fill-rule:evenodd;clip-rule:evenodd;stroke-linejoin:round;stroke-miterlimit:2;">
    <g id="outline" transform="matrix(1.71939,0,0,0.880844,-1.17494,-2.07642)">
        <path d="M12.456,7.036L12.864,7.197L13.196,7.634L13.42,8.283L13.503,9.079L13.503,12.454L13.42,13.249L13.196,13.898L12.864,14.336L12.456,14.497L2.869,14.497L2.461,14.336L2.129,13.898L1.905,13.249L1.822,12.454L1.822,9.079L1.905,8.283L2.129,7.634L2.461,7.197L2.869,7.036L12.456,7.036ZM12.456,8.739L2.869,8.739C2.773,8.739 2.695,8.891 2.695,9.079L2.695,12.454C2.695,12.642 2.773,12.794 2.869,12.794L12.456,12.794C12.552,12.794 12.63,12.642 12.63,12.454L12.63,9.079C12.63,8.891 12.552,8.739 12.456,8.739ZM12.456,17.464L12.864,17.625L13.196,18.063L13.42,18.712L13.503,19.508L13.503,22.882L13.42,23.678L13.196,24.327L12.864,24.764L12.456,24.925L2.869,24.925L2.461,24.764L2.129,24.327L1.905,23.678L1.822,22.882L1.822,19.508L1.905,18.712L2.129,18.063L2.461,17.625L2.869,17.464L12.456,17.464ZM12.456,19.167L2.869,19.167C2.773,19.167 2.695,19.32 2.695,19.508L2.695,22.882C2.695,23.07 2.773,23.223 2.869,23.223L12.456,23.223C12.552,23.223 12.63,23.07 12.63,22.882L12.63,19.508C12.63,19.32 12.552,19.167 12.456,19.167Z" style="fill:white;"/>
    </g>
</svg>
